img/work-Forma_1.svg

<svg width="16" height="17" viewBox="0 0 16 17" fill="none" xmlns="http://www.w3.org/2000/svg">
<path fill-rule="evenodd" clip-rule="evenodd" d="M15.5 6.99735H9.99996V1.49787C9.99996 1.22194 9.77611 0.997242 9.49998 0.997242H6.4999C6.22387 0.997242 5.99991 1.22194 5.99991 1.49787V6.99735H0.499994C0.223838 6.99735 7.98702e-06 7.22206 7.98702e-06 7.4984V10.4976C7.98702e-06 10.7731 0.223838 10.9974 0.499994 10.9974H5.99991V16.4977C5.99991 16.7732 6.22387 16.998 6.4999 16.998H9.49998C9.77611 16.998 9.99996 16.7732 9.99996 16.4977V10.9974H15.5C15.776 10.9974 16 10.7731 16 10.4976V7.4984C16 7.22206 15.776 6.99735 15.5 6.99735Z" fill="white"/>
</svg>

<svg width="16" height="17" fill="none" xmlns="http://www.w3.org/2000/svg"><path fill-rule="evenodd" clip-rule="evenodd" d="M15.5 6.997H10v-5.5a.5.5 0 00-.5-.5h-3a.5.5 0 00-.5.5v5.5H.5a.5.5 0 00-.5.501v3a.5.5 0 00.5.5H6v5.5a.5.5 0 00.5.5h3a.5.5 0 00.5-.5v-5.5h5.5a.5.5 0 00.5-.5v-3a.5.5 0 00-.5-.5z" fill="#fff"/></svg>
